svg/transport/flight_land_line.svg

<?xml version="1.0" encoding="UTF-8"?>
<svg width="24px" height="24px" viewBox="0 0 24 24" version="1.1" xmlns="http://www.w3.org/2000/svg" xmlns:xlink="http://www.w3.org/1999/xlink">
    <title>flight_land_line</title>
    <g id="页面-1" stroke="none" stroke-width="1" fill="none" fill-rule="evenodd">
        <g id="Transport" transform="translate(-576.000000, 0.000000)">
            <g id="flight_land_line" transform="translate(576.000000, 0.000000)">
                 <path d="M24,0 L24,24 L0,24 L0,0 L24,0 Z M12.5934901,23.257841 L12.5819402,23.2595131 L12.5108777,23.2950439 L12.4918791,23.2987469 L12.4918791,23.2987469 L12.4767152,23.2950439 L12.4056548,23.2595131 C12.3958229,23.2563662 12.3870493,23.2590235 12.3821421,23.2649074 L12.3780323,23.275831 L12.360941,23.7031097 L12.3658947,23.7234994 L12.3769048,23.7357139 L12.4804777,23.8096931 L12.4953491,23.8136134 L12.4953491,23.8136134 L12.5071152,23.8096931 L12.6106902,23.7357139 L12.6232938,23.7196733 L12.6232938,23.7196733 L12.6266527,23.7031097 L12.609561,23.275831 C12.6075724,23.2657013 12.6010112,23.2592993 12.5934901,23.257841 L12.5934901,23.257841 Z M12.8583906,23.1452862 L12.8445485,23.1473072 L12.6598443,23.2396597 L12.6498822,23.2499052 L12.6498822,23.2499052 L12.6471943,23.2611114 L12.6650943,23.6906389 L12.6699349,23.7034178 L12.6699349,23.7034178 L12.678386,23.7104931 L12.8793402,23.8032389 C12.8914285,23.8068999 12.9022333,23.8029875 12.9078286,23.7952264 L12.9118235,23.7811639 L12.8776777,23.1665331 C12.8752882,23.1545897 12.8674102,23.1470016 12.8583906,23.1452862 L12.8583906,23.1452862 Z M12.1430473,23.1473072 C12.1332178,23.1423925 12.1221763,23.1452606 12.1156365,23.1525954 L12.1099173,23.1665331 L12.0757714,23.7811639 C12.0751323,23.7926639 12.0828099,23.8018602 12.0926481,23.8045676 L12.108256,23.8032389 L12.3092106,23.7104931 L12.3186497,23.7024347 L12.3186497,23.7024347 L12.3225043,23.6906389 L12.340401,23.2611114 L12.337245,23.2485176 L12.337245,23.2485176 L12.3277531,23.2396597 L12.1430473,23.1473072 Z" id="MingCute" fill-rule="nonzero"></path>
                <path d="M20.99989,20.0001 C21.5522,20.0001 21.99989,20.4478 21.99989,21.0001 C21.99989,21.51295 21.6138716,21.9356092 21.1165158,21.9933725 L20.99989,22.0001 L2.99989,22.0001 C2.4476,22.0001 1.99989,21.5524 1.99989,21.0001 C1.99989,20.48725 2.38592566,20.0645908 2.8832679,20.0068275 L2.99989,20.0001 L20.99989,20.0001 Z M8.10346,3.20538 C8.00550211,2.52548211 8.59636283,1.96050997 9.25436746,2.06249271 L9.36455,2.08576 L12.1234,2.82499 C12.4699778,2.91787 12.7577704,3.15444975 12.9168957,3.47137892 L12.9704,3.59387 L15.7807,11.0953 L19.4455,12.4121 C20.7461,12.8794 21.709,13.991 21.9861,15.3449 C22.1241,16.0194 21.9516,16.7079 21.4218,17.1734 C20.6038313,17.8923687 19.4996906,18.183398 18.4402863,17.9692815 L18.2291,17.9197 L3.15287,13.8799 C2.75789727,13.7740818 2.45767661,13.459338 2.36633273,13.0674492 L2.34531,12.9477 L1.71732,7.68232 C1.63740111,7.01225556 2.22049639,6.4660062 2.86699575,6.56318572 L2.98162,6.58712 L5.25293,7.19571 C5.61177444,7.29186111 5.90680062,7.54177815 6.06199513,7.87418144 L6.11349,8.00256 L6.45329,9.00701 L8.99512,9.39414 L8.10346,3.20538 Z M10.2971,4.4062 L11.165,10.4298 C11.2559176,11.0610471 10.7489114,11.6064588 10.1303657,11.5834026 L10.0132,11.5723 L5.5565,10.8935 C5.22469556,10.8429222 4.94258198,10.6316333 4.79900425,10.3341508 L4.75183,10.2187 L4.34758,9.02368 L3.87642,8.89743 L4.25907,12.1058 L18.7467,15.9878 C19.1906,16.1067 19.6625,16.0115 20.0243,15.7345 C19.8949769,15.1206538 19.4803805,14.6088858 18.9139056,14.3528832 L18.7692,14.2943 L14.673,12.8225 C14.4336857,12.7364429 14.2371306,12.5639857 14.1203003,12.3415274 L14.0687,12.2263 L11.233,4.65695 L10.2971,4.4062 Z" id="形状" fill="#09244B"></path>
            </g>
        </g>
    </g>
</svg>

<svg xmlns="http://www.w3.org/2000/svg" width="24" height="24"><g fill="none" fill-rule="evenodd"><path d="M24 0v24H0V0h24ZM12.593 23.258l-.011.002-.071.035-.02.004-.014-.004-.071-.035c-.01-.004-.019-.001-.024.005l-.004.01-.017.428.005.02.01.013.104.074.015.004.012-.004.104-.074.012-.016.004-.017-.017-.427c-.002-.01-.009-.017-.017-.018Zm.265-.113-.013.002-.185.093-.01.01-.003.011.018.43.005.012.008.007.201.093c.012.004.023 0 .029-.008l.004-.014-.034-.614c-.003-.012-.01-.02-.02-.022Zm-.715.002a.023.023 0 0 0-.027.006l-.006.014-.034.614c0 .012.007.02.017.024l.015-.002.201-.093.01-.008.004-.011.017-.43-.003-.012-.01-.01-.184-.092Z"/><path fill="#09244B" d="M21 20a1 1 0 0 1 .117 1.993L21 22H3a1 1 0 0 1-.117-1.993L3 20h18ZM8.103 3.205a1.01 1.01 0 0 1 1.151-1.143l.11.024 2.76.739c.346.093.634.33.793.646l.053.123 2.81 7.501 3.665 1.317a3.96 3.96 0 0 1 2.541 2.933c.138.674-.034 1.363-.564 1.828a3.474 3.474 0 0 1-2.982.796l-.21-.05-15.077-4.04a1.1 1.1 0 0 1-.787-.812l-.02-.12-.629-5.265a1.01 1.01 0 0 1 1.15-1.119l.115.024 2.27.609c.36.096.655.346.81.678l.051.129.34 1.004 2.542.387-.892-6.189Zm2.194 1.201.868 6.024a1.01 1.01 0 0 1-1.035 1.153l-.117-.01-4.456-.68a1.01 1.01 0 0 1-.758-.559l-.047-.115-.404-1.195-.472-.127.383 3.209 14.488 3.882c.444.119.916.024 1.277-.253a1.96 1.96 0 0 0-1.11-1.382l-.145-.059-4.096-1.472a1.01 1.01 0 0 1-.553-.48l-.051-.116-2.836-7.57-.936-.25Z"/></g></svg>
